X:1
T:Raleigh (Gilbert), 88.88.88
T:Raleigh (Gilbert), 88.88.88
T:Walter Bond Gilbert, 1885
T:Public Domain Courtesy of the Cyber Hymnal™
C:Walter Bond Gilbert, 1885
Z:Public Domain
Z:Courtesy of the Cyber Hymnal™
%%score ( 1 2 ) ( 3 4 )
L:1/8
Q:1/4=109
M:2/4
K:Bb
V:1 treble 
V:2 treble 
V:3 bass 
V:4 bass 
V:1
 [DF]2 | [DF]3 [DF] | [EG]2 [EA]2 | B3 z B | [FA]2 [DA]2 | [DB]3 [DA] | [DG]2 F2 | [Fc]2 =E2 | %8
 [CF]2 [DF]2 | [DF]3 [DF] | [EG]2 [EA]2 | B3 z B | [FA]2 [DA]2 | [DB]3 [DA] | [DG]2 F2 | %15
 [Ec]2 =E2 | [CF]2 [DF]2 | [EG]2 [EA]2 | [DB]2 [Gc]2 | d2 z x3 | [DB]2 [EB]2 | [Ge]3 [Gd] | %22
 [Gc]2 [GB]2 | [EG]2 [EA]2 | !fermata![DB]2 |] %25
V:2
 x2 | x4 | x4 | D2 =E2 x | x4 | x4 | x2 F2 | x2 =E2 | x4 | x4 | x4 | D2 =E2 x | x4 | x4 | x2 F2 | %15
 x2 =E2 | x4 | x4 | x4 | F3 c2 E | x4 | x4 | x4 | x4 | x2 |] %25
V:3
 [B,,B,]2 | [B,,B,]3 [B,,B,] | [E,G,]2 [F,C]2 | [G,B,]2 [C,G,]2 x | F,2 [D,F,]2 | %5
 [G,,G,]3 [A,,^F,] | [B,,G,]2 [D,A,]2 | [C,A,]2 [C,G,]2 | [F,A,]2 [B,,B,]2 | [B,,B,]3 [B,,B,] | %10
 [E,G,]2 [F,C]2 | [G,B,]2 [C,G,]2 x | F,2 [D,F,]2 | [G,,G,]3 [A,,^F,] | [B,,G,]2 [D,A,]2 | %15
 [C,A,]2 [C,G,]2 | [F,A,]2 [B,,B,]2 | [E,B,]2 [C,C]2 | [G,B,]2 [E,B,]2 | [F,B,]2 [F,A,]2 x2 | %20
 [G,B,]2 [E,G,]2 | [C,C]3 [D,=B,] | [E,C]2 [E,C]2 | [E,C]2 [F,C]2 | !fermata![B,,B,]2 |] %25
V:4
 x2 | x4 | x4 | x5 | F,2 x2 | x4 | x4 | x4 | x4 | x4 | x4 | x5 | F,2 x2 | x4 | x4 | x4 | x4 | x4 | %18
 x4 | x6 | x4 | x4 | x4 | x4 | x2 |] %25

